X:1
T:Title
%%score { ( 1 3 ) | ( 2 4 ) }
L:1/8
M:4/4
K:F
V:1 treble nm="Grand Piano"
V:3 treble 
V:2 bass 
V:4 bass 
V:1
 z4 z2 z[Q:1/4=90] A | A>A A>[B,EG] [B,EG]>[A,CF] [A,CF]>[A,CF] | z4 [CA]2 z2 | %3
 A>A A>[EG] [EG]>F F>F |[M:3/4] [EG]>[GB] [FA]>[EG] F2 |[M:1/4] c2 |[M:4/4] c6 z2 | F6 z2 | %8
 E>E E>E E>[Bd] [Ac]>[GB] | A6 z2 | d6 z2 | c6 z2 | [EG] [Ec]3 [FA]2 [EG]2 |[M:3/4] F6 |] %14
V:2
 z4 z2 z [F,CF] | [F,CF]>[F,CF] [F,CF]>C, C,>F, F,>F, | C,>C, D,>C, z2 A,>[F,DF] | %3
 [F,CF]>[F,CF] [F,CF]>[C,B,] [C,B,]>[F,A,C] [F,A,C]>[F,A,C] | %4
[M:3/4] [C,C]>[C,C] [C,C]>[C,B,] [F,A,]2 |[M:1/4] [F,A,F]2 | %6
[M:4/4] [F,A,F]>[F,A,] [F,A,]>[F,A,] [F,A,]>[F,A,C] [C,B,]>[C,B,] | %7
 [F,A,C]>[F,A,] [B,,B,]>[B,,B,] [F,A,]2 [F,A,C]2 | %8
 [C,C]>[C,C] [C,C]>[C,C] [C,C]>[C,C] [D,C]>[E,C] | %9
 [F,CF]>[F,C] [F,C]>[F,C] [F,C]2[K:treble] [F,F]2 | %10
 [B,FB]>[B,F] [B,F]>[B,F] [B,F]>[B,F] [B,F]>[B,F] | [F,F]>[F,F] [F,F]>[F,F] [F,F]2 [F,CF]2 | %12
 [C,C] [C,G,]3 [C,C]2 [C,B,]2 |[M:3/4] [F,A,C]>[F,A,] [B,,B,]>[B,,B,] [F,A,]2 |] %14
V:3
 x8 | x8 | [CEG]>[CEG] [A,DF]>[CEG] F2- [Fc]>B | x8 |[M:3/4] x6 |[M:1/4] x2 | %6
[M:4/4] z z/ F/ F>F F>F [EA]>[EG] | z z/ C/ D>D C2 F2 | G6 z2 | z z/ F/ F>F F2 [Ac]2 | %10
 z z/ B/ B>B B>[df] [ce]>[Bd] | A>A A>A A2 A2 | x8 |[M:3/4] z z/ C/ D>D C2 |] %14
V:4
 x8 | x8 | z4 F,4 | x8 |[M:3/4] x6 |[M:1/4] x2 |[M:4/4] x8 | x8 | x8 | x6[K:treble] x2 | x8 | x8 | %12
 x8 |[M:3/4] x6 |] %14

